img/bisk/sm/Bisk_Logo_Color.svg

<svg xmlns="http://www.w3.org/2000/svg" width="297" height="76" viewBox="0 0 297 76">
  <g fill="none" fill-rule="evenodd">
    <path fill="#FFF" d="M68.3559716 3.11507211C68.3931001 2.06068091 69.2340099 1.21456579 70.2819145 1.17720748L74.3377941 1.17720748C75.3869609 1.21164137 76.2295149 2.0594109 76.263737 3.11507211L76.263737 70.6686707C76.2295149 71.724332 75.3869609 72.5721015 74.3377941 72.6065354L70.2819145 72.6065354C69.2340099 72.5691771 68.3931001 71.7230619 68.3559716 70.6686707L68.3559716 3.11507211 68.3559716 3.11507211zM92.3972582 61.8909288C92.9072431 61.2872327 93.4112282 60.5627973 93.921213 59.9530642 94.9351829 58.6249327 96.0511498 57.8099429 97.4731076 59.035446 98.1810866 59.6391422 105.584867 66.7929415 114.614599 66.7929415 122.828355 66.7929415 128.204196 61.5890807 128.204196 55.5641932 128.204196 48.5250961 122.120376 44.3414819 110.456722 39.4394692 99.2970535 34.5434934 92.607252 29.9493658 92.607252 18.3101041 92.607252 11.3736354 98.0850895.144887075 114.206611.144887075 120.35407.228960268 126.357321 2.03063313 131.546097 5.34874785 132.146079 5.65663288 133.346043 6.88213605 132.146079 8.82000068 131.738091 9.42369683 131.336103 10.1481322 130.946114 10.7578653 130.034141 12.1886252 129.020172 12.5689537 127.39422 11.6754834 126.686241 11.2649701 120.29643 6.97872744 114.110614 6.97872744 103.358933 6.97872744 100.113029 13.9151961 100.113029 18.2074757 100.113029 25.0473531 105.284876 29.0257107 113.804623 32.5935549 127.496217 38.207929 136.321955 43.4117898 136.321955 55.2502712 136.321955 65.8632494 126.278253 73.6207449 114.416605 73.6207449 102.44696 73.6207449 94.3352007 66.5816478 93.0152399 65.3561447 92.1872645 64.6498202 91.1972938 63.8348304 92.3972582 61.8909288L92.3972582 61.8909288zM151.003519 3.62217687C150.993709 2.9691535 151.247199 2.33997872 151.706168 1.87816872 152.165137 1.41635872 152.790441 1.16129945 153.439447 1.17117052L156.37936 1.17117052C157.717923 1.18745826 158.7991 2.27532774 158.815287 3.62217687L158.815287 32.5030005 190.458348 2.19141701C190.950756 1.62073075 191.638012 1.25666487 192.384291 1.17117052L197.352144 1.17117052C199.15209 1.17117052 200.19006 3.21166349 198.552108 4.7450517L166.501059 34.8513785 200.100062 69.4492045C200.537294 70.0759715 200.582666 70.8982433 200.217078 71.5698592 199.85149 72.241475 199.138442 72.6457812 198.378113 72.6125723L193.194267 72.6125723C192.528847 72.5997385 191.890121 72.3469511 191.394321 71.9002109L158.815287 37.7068612 158.815287 70.155529C158.7991 71.5023782 157.717923 72.5902476 156.37936 72.6065354L153.439447 72.6065354C152.790441 72.6164064 152.165137 72.3613472 151.706168 71.8995372 151.247199 71.4377272 150.993709 70.8085524 151.003519 70.155529L151.003519 3.62217687 151.003519 3.62217687zM39.9588143 36.2821383C44.7286727 33.5292839 49.9005193 27.8303923 49.9005193 19.9823424 49.9005193 9.26673583 41.5007685 1.20739229 29.1111362 1.20739229L6.9117949 1.20739229C5.84812604 1.20739229 4.98585205 2.07500384 4.98585205 3.14525692L4.98585205 35.0143764C4.9856567 35.617564 5.30604616 36.1748083 5.82582713 36.4753211L12.0056437 40.0492023C12.2594544 40.1957215 12.5470026 40.2727369 12.839619 40.2725698L29.1291356 40.2725698C37.036901 40.2725698 43.6307053 45.579059 43.6307053 52.8234127 43.6307053 60.0677664 38.4588588 65.5674383 31.2770719 65.778732 30.9992802 65.7841636 30.7271643 65.8588364 30.4850954 65.9960626L20.9753776 71.4957345C20.737657 71.6312752 20.6209752 71.9113074 20.6915532 72.176903 20.7621312 72.4424986 21.002141 72.6265684 21.2753687 72.6246463L29.9991098 72.6246463C43.0847215 72.6246463 52.1084538 64.360046 52.1084538 52.926041 52.132453 43.5264921 45.3346548 38.521851 39.9588143 36.2821383L39.9588143 36.2821383zM29.1111362 33.203288L12.5996261 33.203288 12.5996261 8.21630454 29.1291356 8.21630454C36.9289042 8.21630454 41.2967746 13.1122803 41.2967746 20.4592624 41.2787751 27.6070247 36.9169045 33.203288 29.1111362 33.203288L29.1111362 33.203288z"/>
    <path fill="#E31B48" d="M0.33599003,58.5585261 L0.33599003,42.8624263 C0.337931661,42.2622822 0.657098264,41.7085133 1.17382141,41.4087498 C1.69054456,41.1089863 2.32675646,41.1085173 2.84391561,41.4075186 L16.379514,49.2555685 L29.9151123,57.1036184 C30.4323258,57.4046823 30.7508304,57.9603197 30.7508304,58.5615446 C30.7508304,59.1627695 30.4323258,59.7184068 29.9151123,60.0194707 L16.379514,67.8675206 L2.84391561,75.7155705 C2.32675646,76.0145718 1.69054456,76.0141028 1.17382141,75.7143393 C0.657098264,75.4145758 0.337931661,74.8608069 0.33599003,74.2606628 L0.33599003,58.5585261 L0.33599003,58.5585261 Z"/>
    <path fill="#FFF" d="M284.404374,36.4210419 C289.174232,33.6681874 294.346079,27.9692958 294.346079,20.1212459 C294.346079,9.40563937 285.946328,1.34629583 273.556696,1.34629583 L251.357354,1.34629583 C250.293686,1.34629583 249.431412,2.21390737 249.431412,3.28416045 L249.431412,35.15328 C249.431216,35.7564676 249.751606,36.3137118 250.271387,36.6142246 L256.451203,40.1881058 C256.705014,40.334625 256.992562,40.4116404 257.285179,40.4114734 L273.574695,40.4114734 C281.482461,40.4114734 288.076265,45.7179625 288.076265,52.9623162 C288.076265,60.20667 282.904418,65.7063419 275.722631,65.9176355 C275.44484,65.9230672 275.172724,65.99774 274.930655,66.1349661 L265.420937,71.634638 C265.183217,71.7701787 265.066535,72.050211 265.137113,72.3158065 C265.207691,72.5814021 265.447701,72.7654719 265.720928,72.7635498 L274.444669,72.7635498 C287.530281,72.7635498 296.554013,64.4989496 296.554013,53.0649446 C296.578013,43.6653956 289.780214,38.6607546 284.404374,36.4210419 L284.404374,36.4210419 Z M273.556696,33.3421915 L257.045186,33.3421915 L257.045186,8.35520807 L273.574695,8.35520807 C281.374464,8.35520807 285.742334,13.2511838 285.742334,20.5981659 C285.724335,27.7459283 281.362464,33.3421915 273.556696,33.3421915 L273.556696,33.3421915 Z"/>
    <path fill="#E31B48" d="M244.741551,58.4369519 L244.741551,42.7408521 C244.743492,42.140708 245.062659,41.5869391 245.579382,41.2871756 C246.096105,40.9874121 246.732317,40.9869431 247.249476,41.2859444 L260.785075,49.1339943 L274.320673,56.9820441 C274.837886,57.2831081 275.156391,57.8387454 275.156391,58.4399703 C275.156391,59.0411952 274.837886,59.5968326 274.320673,59.8978965 L260.785075,67.7459464 L247.249476,75.5939963 C246.732317,75.8929976 246.096105,75.8925286 245.579382,75.5927651 C245.062659,75.2930016 244.743492,74.7392327 244.741551,74.1390886 L244.741551,58.4369519 L244.741551,58.4369519 Z"/>
  </g>
</svg>

<svg xmlns="http://www.w3.org/2000/svg" width="297" height="76"><g fill="none" fill-rule="evenodd"><path fill="#FFF" d="M68.356 3.115a2.004 2.004 0 0 1 1.926-1.938h4.056a1.998 1.998 0 0 1 1.926 1.938V70.67a1.998 1.998 0 0 1-1.926 1.938h-4.056a2.004 2.004 0 0 1-1.926-1.938V3.115zm24.041 58.776c.51-.604 1.014-1.328 1.524-1.938 1.014-1.328 2.13-2.143 3.552-.918.708.604 8.112 7.758 17.142 7.758 8.213 0 13.59-5.204 13.59-11.229 0-7.039-6.085-11.223-17.748-16.125-11.16-4.896-17.85-9.49-17.85-21.129 0-6.936 5.478-18.165 21.6-18.165a33.02 33.02 0 0 1 17.34 5.204c.6.308 1.799 1.533.6 3.471-.409.604-.81 1.328-1.2 1.938-.913 1.43-1.927 1.811-3.553.917-.708-.41-7.098-4.696-13.283-4.696-10.752 0-13.998 6.936-13.998 11.228 0 6.84 5.172 10.819 13.692 14.387 13.691 5.614 22.517 10.818 22.517 22.656 0 10.613-10.044 18.37-21.905 18.37-11.97 0-20.082-7.038-21.402-8.264-.828-.706-1.818-1.521-.618-3.465zm58.607-58.269a2.423 2.423 0 0 1 .702-1.744 2.392 2.392 0 0 1 1.733-.707h2.94a2.474 2.474 0 0 1 2.436 2.451v28.881l31.643-30.312a2.994 2.994 0 0 1 1.926-1.02h4.968c1.8 0 2.838 2.04 1.2 3.574l-32.05 30.106L200.1 69.45a2.02 2.02 0 0 1 .117 2.12 1.996 1.996 0 0 1-1.839 1.044h-5.184a2.769 2.769 0 0 1-1.8-.713l-32.579-34.193v32.449a2.474 2.474 0 0 1-2.436 2.45h-2.94a2.392 2.392 0 0 1-1.733-.706 2.423 2.423 0 0 1-.702-1.744V3.622zM39.959 36.282c4.77-2.753 9.942-8.452 9.942-16.3 0-10.715-8.4-18.775-20.79-18.775h-22.2a1.932 1.932 0 0 0-1.925 1.938v31.87c0 .603.32 1.16.84 1.46l6.18 3.574c.253.147.541.224.834.224h16.29c7.907 0 14.5 5.306 14.5 12.55 0 7.245-5.171 12.744-12.353 12.956-.278.005-.55.08-.792.217l-9.51 5.5a.605.605 0 0 0 .3 1.129H30c13.086 0 22.11-8.265 22.11-19.699.023-9.4-6.774-14.404-12.15-16.644zM29.11 33.203H12.6V8.216h16.53c7.799 0 12.167 4.896 12.167 12.243-.018 7.148-4.38 12.744-12.186 12.744z"/><path fill="#E31B48" d="M.336 58.559V42.862c.002-.6.321-1.153.838-1.453.517-.3 1.153-.3 1.67-.001l13.536 7.848 13.535 7.848c.517.3.836.856.836 1.458 0 .6-.319 1.156-.836 1.457L16.38 67.868 2.844 75.716a1.665 1.665 0 0 1-1.67-.002 1.686 1.686 0 0 1-.838-1.453V58.559z"/><path fill="#FFF" d="M284.404 36.421c4.77-2.753 9.942-8.452 9.942-16.3 0-10.715-8.4-18.775-20.79-18.775h-22.199a1.932 1.932 0 0 0-1.926 1.938v31.87c0 .602.32 1.16.84 1.46l6.18 3.574c.254.147.542.224.834.223h16.29c7.907 0 14.501 5.307 14.501 12.551 0 7.245-5.172 12.744-12.353 12.956-.278.005-.55.08-.792.217l-9.51 5.5a.605.605 0 0 0 .3 1.129h8.724c13.085 0 22.109-8.265 22.109-19.7.024-9.399-6.774-14.403-12.15-16.643zm-10.847-3.079h-16.512V8.355h16.53c7.8 0 12.167 4.896 12.167 12.243-.018 7.148-4.38 12.744-12.185 12.744z"/><path fill="#E31B48" d="M244.742 58.437V42.741c.001-.6.32-1.154.837-1.454.517-.3 1.153-.3 1.67-.001l13.536 7.848 13.536 7.848c.517.301.835.857.835 1.458s-.318 1.157-.835 1.458l-13.536 7.848-13.536 7.848a1.665 1.665 0 0 1-1.67-.001 1.686 1.686 0 0 1-.837-1.454V58.437z"/></g></svg>
